X: 30997
T: Pablo Sosa's
R: slip jig
M: 9/8
K: Bminor
|:cFF cBc edc|cFF def edc|cFF cBc edc|cfe dcB FAB:|
|:dBeBdB ffe|dFeFdF cBc|dBeBdB ffe|fed d2 B FAB:|
|:fef edc BAF|fdf ece dcB|fef edc BAF|fed c2 B FAB:|

